X:1
T:Maple Leaf Rag
C:Scott Joplin
M:2/4
L:1/4
Q:1/4=96
K:C
G/ | c/ e3/2 | g e/ c/ | c/ e3/2 | c2 | G/ c/ e/ g/ | e d/ c/ | G/ c/ e/ g/ | c2 |
c/ e3/2 | g e/ c/ | c/ e3/2 | c2 | G/ A/ B/ c/ | e d/ c/ | d/ e/ f/ g/ | c2 |]
